!!!OTL: "Der Wunsch" WENN I E BUURE CHAETZLI WAER
!!!ARE: Europa, Mitteleuropa, Schweiz; Elsass
!!!SCT: Z1333
!!!YEM: Copyright 1995, estate of Helmut Schaffrath.
**kern
*ICvox
*Ivox
*M2/4
*k[b-]
*F:
{8c
=1
8a
8f
8b-
8g
=2
8cc
16cc
16dd
8.cc}
{16b-
=3
8a
16a
16f
8b-
16b-
16g
=4
4cc
8cc}
{8b-
=5
8a
8cc
16cc
16b-
16a
16g
=6
8f
16f
16f
8f}
{8f
=7
8g
8g
16g
16f
16e
16d
=8
8c
16c
16c
8c}
{8c
=9
8.a
16cc
16cc
16b-
16a
16g
=10
4f
8f}
{8a
=11
8g
8a
16b-
16g
16f
16e
=12
4f
8f}
==
!!!AGN: Zech -, Schalks - Lied; Wunsch -, Kilt - Lied
!!!ONB: ESAC (Essen Associative Code) Database: ZUCCAL
!!!AMT: simple duple
!!!AIN: vox
!!!EED: Helmut Schaffrath
!!!EEV: 1.0
*-
